images/logo-32.svg

<svg height="32" viewBox="0 0 32 32" width="32" xmlns="http://www.w3.org/2000/svg"><path d="m.1 0h7l7.9 8 8-8h7l-15 15z"/><path d="m15 15-15-15h7.1l7.9 7.9 8-7.9h7zm-14.9-14.9 14.9 14.9 14.9-14.9h-6.9l-8 7.9-8-7.9z"/><path d="m32 2-15 15 15 14.9v-6.9l-8-8 8-8z"/><path d="m32 32-15-15 15-15v7l-8 8 8 7.9zm-15-15 14.9 14.9v-6.9l-7.9-8 7.9-8v-6.9z"/><path d="m.1 4v27.9l5-5v-17.9z"/><path d="m.1 32v-28l5 5v18zm0-27.9v27.8l4.9-5v-17.9z"/></svg>

<svg id="Layer_1" data-name="Layer 1" xmlns="http://www.w3.org/2000/svg" width="32" height="32" viewBox="0 0 32 32"><polygon points="0.1 0 7.1 0 15 8 23 0 30 0 15 15 0.1 0"/><path d="M15,15h0L0,0H7.1L15,7.9,23,0h7ZM.1.1,15,15,29.9.1H23L15,8,7,.1Z"/><polygon points="32 2 17 17 32 31.9 32 25 24 17 32 9 32 2"/><path d="M32,32,17,17h0L32,2V9h0l-8,8,8,7.9ZM17,17,31.9,31.9V25L24,17h0l7.9-8V2.1Z"/><polygon points="0.1 4 0.1 31.9 5.1 26.9 5.1 9 0.1 4"/><path d="M.1,32V4L5.1,9V27h0ZM.1,4.1V31.9l4.9-5V9Z"/></svg>
